X: 57
T: The blazing turf fire
C: anon.
O: Ireland
B: Francis O'Neill: "The Dance Music of Ireland" (1907) no. 57
R: Double jig
Z: Transcribed by Frank Nordberg - http://www.musicaviva.com
F: http://www.musicaviva.com/abc/tunes/ireland/oneill-1001/oneill-1001-005
7.abc
M: 6/8
L: 1/8
K: D
A|ded d(f/e/d)|cAA {d}cBc|ded afd|ecA ABc|ded d(f/e/d)|cAB cde|{g}fde dcA
|GED D2:|
|:G|E(DE/F/) GAG|EDE G2A|E(DE/F/) GAc|BAG A2G|E(DE/F/) GAG|E2E Geg|{g}fde
 dcA|GED D2:|
W:
W:
W: From Musica Viva - http://www.musicaviva.com
W: the Internet center for free sheet music downloads.


